view/frontend/web/svg/flags/fj.svg

<svg width="24" height="24" viewbox="0 0 20 15" viewBox="0 0 20 15" fill="none" xmlns="http://www.w3.org/2000/svg">
<g clip-path="url(#clip0_270_60822)">
<rect width="20" height="15" fill="white"/>
<path fill-rule="evenodd" clip-rule="evenodd" d="M0 0V15H20V0H0Z" fill="#67BFE5"/>
<g clip-path="url(#clip1_270_60822)">
<rect width="11" height="9" fill="#2E42A5"/>
<path d="M-1.25267 8.12488L1.22293 9.21063L11.3062 1.18046L12.612 -0.432999L9.9647 -0.795888L5.85199 2.66454L2.54167 4.99607L-1.25267 8.12488Z" fill="#F7FCFF"/>
<path d="M-0.913754 8.88561L0.347447 9.51569L12.1431 -0.582886H10.3722L-0.913754 8.88561Z" fill="#F50100"/>
<path d="M12.5027 8.1249L10.3056 9.5206L-0.0561752 1.18047L-1.36199 -0.432984L1.2853 -0.795875L5.39801 2.66456L8.70833 4.99608L12.5027 8.1249Z" fill="#F7FCFF"/>
<path d="M12.4182 8.67082L11.157 9.3009L6.13429 4.97718L4.64517 4.4941L-1.48764 -0.427482H0.283231L6.4126 4.37728L8.04069 4.95655L12.4182 8.67082Z" fill="#F50100"/>
<path fill-rule="evenodd" clip-rule="evenodd" d="M6 0H5V4H0V5H5V9H6V5H11V4H6V0Z" fill="#F50100"/>
<path fill-rule="evenodd" clip-rule="evenodd" d="M4.0625 0H6.9375V3.0625L11 3V5.875L6.9375 5.9375V9H4.0625V5.9375L0 5.875V3L4.0625 3.0625V0ZM5 4H0V5H5V9H6V5H11V4H6V0H5V4Z" fill="#F7FCFF"/>
</g>
<path fill-rule="evenodd" clip-rule="evenodd" d="M12.5 6.25H18.5345V11.4583C18.5345 11.4583 18.0284 13.75 15.5172 13.75C13.006 13.75 12.5 11.4583 12.5 11.4583V6.25Z" fill="#F7FCFF"/>
<mask id="mask0_270_60822" style="mask-type:luminance" maskUnits="userSpaceOnUse" x="12" y="6" width="7" height="8">
<path fill-rule="evenodd" clip-rule="evenodd" d="M12.5 6.25H18.5345V11.4583C18.5345 11.4583 18.0284 13.75 15.5172 13.75C13.006 13.75 12.5 11.4583 12.5 11.4583V6.25Z" fill="white"/>
</mask>
<g mask="url(#mask0_270_60822)">
<rect x="12.5" y="6.25" width="6.03448" height="1.875" fill="#C3352C"/>
<rect x="15.0862" y="7.91666" width="0.862069" height="5.83333" fill="#C3352C"/>
<path fill-rule="evenodd" clip-rule="evenodd" d="M12.5 10.2083H18.5345V11.0417H12.5V10.2083Z" fill="#C3352C"/>
<path fill-rule="evenodd" clip-rule="evenodd" d="M14.0878 12.9607C14.4507 13.4736 14.7464 13.6738 14.9554 13.3715C15.1022 13.1591 15.1174 12.9467 14.9081 12.9051C14.7868 12.7508 14.7011 12.6305 14.6521 12.5466L14.6592 12.54C14.7179 12.4829 14.7201 12.4068 14.7085 12.3784C14.7041 12.3396 14.7332 12.2869 14.9217 12.1427C15.0925 12.0121 15.1683 11.8892 15.0564 11.7537C14.9975 11.6826 14.9447 11.6683 14.7778 11.6426L14.7266 11.6346C14.6772 11.6267 14.6414 11.6188 14.6187 11.612L14.5028 11.3897C14.2605 11.3823 14.0712 11.425 13.8641 11.5125C13.7749 11.5501 13.7148 11.5757 13.6747 11.5928L13.6747 11.5928L13.6747 11.5928C13.6137 11.6188 13.5989 11.6251 13.5985 11.6241C13.5983 11.6239 13.5996 11.6228 13.6013 11.6215C13.6061 11.6177 13.6141 11.6113 13.6025 11.6113C13.5588 11.6113 13.5115 11.6064 13.3803 11.5898L13.3546 11.5865C12.9774 11.5391 12.8829 11.5406 12.8217 11.7162C12.7287 11.9834 13.2794 12.4731 13.5717 12.532C13.7181 12.5615 13.8933 12.7016 14.0878 12.9607ZM14.498 12.5929C14.5335 12.5929 14.5608 12.5914 14.5849 12.5849L14.5922 12.5689C14.5726 12.5822 14.5431 12.5929 14.498 12.5929ZM13.1213 11.8551C13.1136 11.8461 13.1115 11.8344 13.1169 11.819C13.1158 11.8221 13.1193 11.829 13.1266 11.8387C13.1339 11.8483 13.1448 11.8607 13.1586 11.8751C13.1419 11.8703 13.1289 11.864 13.1213 11.8551ZM13.6333 12.2256C13.5286 12.2045 13.2621 11.9828 13.1586 11.8751C13.1858 11.8829 13.2228 11.8867 13.2625 11.8907L13.2625 11.8907C13.2799 11.8925 13.2978 11.8943 13.3156 11.8966L13.3409 11.8998C13.4883 11.9185 13.5398 11.9238 13.6025 11.9238C13.6386 11.9238 13.6312 11.9363 13.6267 11.9439C13.6253 11.9462 13.6241 11.9481 13.6247 11.949C13.6268 11.9525 13.6553 11.9404 13.7977 11.88L13.7977 11.88L13.9857 11.8004C14.0964 11.7536 14.1974 11.7234 14.3083 11.7098C14.3205 11.7621 14.3509 11.8094 14.4006 11.8479C14.4671 11.8995 14.5423 11.9212 14.6716 11.9423C14.5109 12.0745 14.4302 12.1851 14.4047 12.293C14.2602 12.3387 14.2733 12.5016 14.3601 12.6644C14.4205 12.7779 14.5348 12.9388 14.7048 13.1516L14.8268 13.2103C14.7908 13.2103 14.7707 13.1938 14.7554 13.1812C14.7361 13.1654 14.7245 13.1559 14.6983 13.1938C14.6966 13.1964 14.5829 13.1194 14.3403 12.7766C14.1016 12.4585 13.87 12.2733 13.6333 12.2256ZM14.3955 12.4129C14.3977 12.4111 14.3974 12.4086 14.3972 12.4062L14.3972 12.4061L14.3955 12.4129ZM14.4954 12.2804L14.486 12.2805L14.4904 12.2809C14.4921 12.2806 14.4937 12.2805 14.4954 12.2804ZM14.498 12.2804C14.4971 12.2804 14.4962 12.2804 14.4954 12.2804L14.498 12.2804Z" fill="#979797"/>
<path d="M13.5344 10.0689C13.5344 10.0689 13.2362 9.65637 13.2362 9.50931" stroke="#964C36" stroke-width="0.625"/>
<path d="M13.3492 9.71425C13.3492 9.71425 12.968 9.55143 12.968 9.71425" stroke="#2A8E51" stroke-width="0.625"/>
<path d="M13.343 9.54304C13.343 9.54304 13.0749 9.2019 12.8733 9.2019C12.6717 9.2019 12.6765 9.37247 12.6765 9.37247" stroke="#2A8E51" stroke-width="0.625"/>
<path d="M13.19 9.20123C13.19 9.20123 13.0703 8.64325 12.8787 8.64325C12.687 8.64325 12.687 8.92224 12.687 8.92224" stroke="#2A8E51" stroke-width="0.625"/>
<path d="M13.2384 9.20015C13.2384 9.20015 13.185 8.72195 13.4318 8.72195" stroke="#2A8E51" stroke-width="0.625"/>
<path d="M13.9132 9.98822C13.9132 9.98822 13.7741 9.4986 13.8244 9.36041" stroke="#964C36" stroke-width="0.625"/>
<path d="M13.8604 9.59166C13.8604 9.59166 13.5579 9.30826 13.5022 9.46127" stroke="#2A8E51" stroke-width="0.625"/>
<path d="M13.9132 9.42864C13.9132 9.42864 13.7779 9.01636 13.5884 8.94741C13.399 8.87846 13.3452 9.04039 13.3452 9.04039" stroke="#2A8E51" stroke-width="0.625"/>
<path d="M13.8863 9.05511C13.8863 9.05511 13.9647 8.48985 13.7846 8.42431C13.6045 8.35876 13.5091 8.62093 13.5091 8.62093" stroke="#2A8E51" stroke-width="0.625"/>
<path d="M13.9322 9.07064C13.9322 9.07064 14.0456 8.60303 14.2774 8.68743" stroke="#2A8E51" stroke-width="0.625"/>
<path d="M14.22 10.1626C14.22 10.1626 14.4178 9.69355 14.3847 9.55026" stroke="#964C36" stroke-width="0.5"/>
<path d="M14.3207 9.77541C14.3207 9.77541 14.6555 9.531 14.6922 9.68965" stroke="#2A8E51" stroke-width="0.5"/>
<path d="M14.2882 9.60718C14.2882 9.60718 14.4728 9.21446 14.6692 9.16911C14.8656 9.12376 14.8993 9.29104 14.8993 9.29104" stroke="#2A8E51" stroke-width="0.5"/>
<path d="M14.3604 9.2397C14.3604 9.2397 14.3515 8.6691 14.5382 8.62599C14.725 8.58289 14.7877 8.85472 14.7877 8.85472" stroke="#2A8E51" stroke-width="0.5"/>
<path d="M14.313 9.2495C14.313 9.2495 14.2574 8.77156 14.017 8.82707" stroke="#2A8E51" stroke-width="0.5"/>
<path d="M16.6862 9.87615C16.6862 9.87615 16.8375 9.18024 17.2679 9.18024C17.6983 9.18024 17.8909 9.91549 17.8909 9.91549" stroke="#2A8E51" stroke-width="0.5"/>
<path d="M16.3308 9.40105C16.3308 9.40105 16.5626 8.98999 17.3275 9.0236C18.0924 9.05721 18.2318 9.40105 18.2318 9.40105" stroke="#2A8E51" stroke-width="0.5"/>
<path d="M16.1763 8.87833C16.1763 8.87833 16.5964 8.35789 17.1853 8.79903L17.3848 8.87833C17.3848 8.87833 17.5848 8.28854 18.5513 8.87833" stroke="#2A8E51" stroke-width="0.5"/>
<path d="M17.3365 10.0231C17.3365 10.0231 17.3673 9.37354 17.4703 9.19513" stroke="#964C36" stroke-width="0.625"/>
<path d="M18.1867 11.4462C18.1867 11.4462 17.8004 11.2645 17.6848 11.4462C17.5692 11.6279 16.1768 13.2973 16.1768 13.2973" stroke="#964C36" stroke-width="0.625"/>
<path fill-rule="evenodd" clip-rule="evenodd" d="M16.8527 11.622L17.7157 12.2253C17.7157 12.2253 18.1129 11.9419 17.9143 11.7819C17.7157 11.622 17.1746 11.3399 17.1746 11.3399L16.8527 11.622Z" fill="#FFF203"/>
<path fill-rule="evenodd" clip-rule="evenodd" d="M16.8229 11.6528C16.8229 11.6528 16.6229 11.8621 16.6229 12.0221C16.6229 12.1821 16.4369 12.6109 16.4369 12.6109C16.4369 12.6109 16.9572 12.9312 17.0652 12.7272C17.1732 12.5232 17.8748 12.6453 17.7511 12.3337C17.6273 12.0221 16.8229 11.6528 16.8229 11.6528Z" fill="#00A651"/>
<path fill-rule="evenodd" clip-rule="evenodd" d="M13.1602 6.98893C13.1602 6.98893 13.621 6.75247 13.8491 6.98893C14.0772 7.22539 14.2641 6.96933 14.2641 6.82669C14.2641 6.68406 14.6263 6.19439 14.6263 6.59166C14.6263 6.98893 14.5136 7.21323 14.8319 7.21323C15.1503 7.21323 16.5839 6.66446 16.9277 6.82669C17.2714 6.98893 17.5345 6.94858 17.4471 6.7158C17.3597 6.48303 17.1351 6.33754 16.7026 6.4646C16.2702 6.59166 16.3722 6.7158 15.9985 6.7158C15.6247 6.7158 15.2087 6.59166 15.2087 6.59166C15.2087 6.59166 15.3256 6.38291 15.7523 6.53139C16.179 6.67988 16.7676 6.3475 16.9277 6.3475C17.0877 6.3475 17.5283 6.33754 17.572 6.4646C17.6156 6.59166 17.8816 6.70825 17.6789 6.82669C17.4761 6.94514 17.1417 7.01934 17.3718 7.1711C17.6019 7.32285 18.1309 7.29361 18.1564 7.45146C18.1819 7.60932 18.4326 7.84505 18.332 7.84505C18.2313 7.84505 18.0495 8.06736 17.8801 7.99967C17.7108 7.93198 17.6909 7.87254 17.8533 7.8177C18.0156 7.76287 18.0141 7.53226 17.8801 7.53226C17.7462 7.53226 17.8116 7.61305 17.5066 7.53226C17.2017 7.45146 16.7981 7.36164 16.8223 7.53226C16.8466 7.70287 17.0451 7.96477 16.6788 7.99967C16.3125 8.03457 16.1411 8.17471 16.0698 8.06186C15.9985 7.94901 15.7436 7.79864 15.944 7.75042C16.1444 7.7022 16.3359 7.91432 16.4081 7.87968C16.4803 7.84505 16.6438 7.82577 16.5068 7.67901C16.3698 7.53226 16.1439 7.44586 16.3533 7.33601C16.5628 7.22617 16.3975 7.22391 15.9985 7.45146C15.5994 7.67901 15.3775 7.87239 15.0272 7.84505C14.6769 7.8177 14.5456 7.85459 14.433 7.8177C14.3205 7.78082 13.7721 8.22526 13.6142 8.11246C13.4562 7.99967 12.9465 7.9564 13.0382 7.8177C13.13 7.67901 13.2532 7.60761 13.3904 7.67901C13.5277 7.75042 13.664 7.82182 13.7566 7.75042C13.8491 7.67901 14.1164 7.43399 14.0491 7.385C13.9819 7.33601 14.0469 7.1711 13.6663 7.1711C13.2857 7.1711 13.1519 7.35489 13.0615 7.23909C12.9712 7.12328 13.1602 6.98893 13.1602 6.98893Z" fill="#FFD100"/>
</g>
</g>
<defs>
<clipPath id="clip0_270_60822">
<rect width="20" height="15" fill="white"/>
</clipPath>
<clipPath id="clip1_270_60822">
<rect width="11" height="9" fill="white"/>
</clipPath>
</defs>
</svg>

<svg width="24" height="24" viewbox="0 0 20 15" fill="none" xmlns="http://www.w3.org/2000/svg">
  <mask id="a" maskUnits="userSpaceOnUse" x="0" y="0" width="20" height="15">
    <path fill="#fff" d="M0 0h20v15H0z"/>
  </mask>
  <g mask="url(#a)">
    <path fill-rule="evenodd" clip-rule="evenodd" d="M0 0v15h20V0H0z" fill="#67BFE5"/>
    <mask id="b" maskUnits="userSpaceOnUse" x="0" y="0" width="20" height="15">
      <path fill-rule="evenodd" clip-rule="evenodd" d="M0 0v15h20V0H0z" fill="#fff"/>
    </mask>
    <g mask="url(#b)">
      <path fill="#2E42A5" d="M0 0h11v9H0z"/>
      <mask id="c" maskUnits="userSpaceOnUse" x="0" y="0" width="11" height="9">
        <path fill="#fff" d="M0 0h11v9H0z"/>
      </mask>
      <g mask="url(#c)">
        <path d="M-1.253 8.125L1.223 9.21l10.083-8.03 1.306-1.614-2.647-.363-4.113 3.46-3.31 2.332-3.795 3.129z" fill="#F7FCFF"/>
        <path d="M-.914 8.886l1.261.63L12.143-.583h-1.77L-.915 8.886z" fill="#F50100"/>
        <path d="M12.503 8.125L10.306 9.52-.056 1.18-1.362-.434l2.647-.363 4.113 3.46 3.31 2.332 3.795 3.129z" fill="#F7FCFF"/>
        <path d="M12.418 8.67l-1.261.63-5.023-4.323-1.489-.483-6.133-4.921H.283l6.13 4.804 1.628.58 4.377 3.714z" fill="#F50100"/>
        <mask id="d" maskUnits="userSpaceOnUse" x="-1" y="-1" width="13" height="11" fill="#000">
          <path fill="#fff" d="M-1-1h13v11H-1z"/>
          <path fill-rule="evenodd" clip-rule="evenodd" d="M6 0H5v4H0v1h5v4h1V5h5V4H6V0z"/>
        </mask>
        <path fill-rule="evenodd" clip-rule="evenodd" d="M6 0H5v4H0v1h5v4h1V5h5V4H6V0z" fill="#F50100"/>
        <path d="M5 0v-.938h-.938V0H5zm1 0h.938v-.938H6V0zM5 4v.938h.938V4H5zM0 4v-.938h-.938V4H0zm0 1h-.938v.938H0V5zm5 0h.938v-.938H5V5zm0 4h-.938v.938H5V9zm1 0v.938h.938V9H6zm0-4v-.938h-.938V5H6zm5 0v.938h.938V5H11zm0-1h.938v-.938H11V4zM6 4h-.938v.938H6V4zM5 .937h1V-.938H5V.938zM5.938 4V0H4.063v4h1.875zM0 4.938h5V3.063H0v1.874zM.938 5V4H-.938v1H.938zM5 4.062H0v1.875h5V4.063zM5.938 9V5H4.063v4h1.875zM6 8.062H5v1.876h1V8.062zM5.062 5v4h1.875V5H5.063zM11 4.062H6v1.875h5V4.063zM10.062 4v1h1.876V4h-1.876zM6 4.938h5V3.063H6v1.874zM5.062 0v4h1.875V0H5.063z" fill="#F7FCFF" mask="url(#d)"/>
      </g>
      <path fill-rule="evenodd" clip-rule="evenodd" d="M12.5 6.25h6.035v5.208s-.507 2.292-3.018 2.292c-2.511 0-3.017-2.292-3.017-2.292V6.25z" fill="#F7FCFF"/>
      <mask id="e" maskUnits="userSpaceOnUse" x="12" y="6" width="7" height="8">
        <path fill-rule="evenodd" clip-rule="evenodd" d="M12.5 6.25h6.035v5.208s-.507 2.292-3.018 2.292c-2.511 0-3.017-2.292-3.017-2.292V6.25z" fill="#fff"/>
      </mask>
      <g mask="url(#e)">
        <path fill="#C3352C" d="M12.5 6.25h6.034v1.875H12.5z"/>
        <path fill="#C3352C" d="M15.086 7.917h.862v5.833h-.862z"/>
        <path fill-rule="evenodd" clip-rule="evenodd" d="M12.5 10.208h6.035v.834H12.5v-.834z" fill="#C3352C"/>
        <path fill-rule="evenodd" clip-rule="evenodd" d="M14.088 12.96c.363.514.658.714.867.411.147-.212.162-.424-.047-.466a3.509 3.509 0 01-.256-.358l.007-.007c.059-.057.061-.133.05-.162-.005-.038.024-.091.213-.235.17-.13.246-.254.134-.39-.058-.07-.111-.085-.278-.11l-.051-.008a.893.893 0 01-.108-.023l-.116-.222a1.43 1.43 0 00-.639.122l-.19.08a.738.738 0 01-.073.03c.005-.004.013-.01.001-.01-.043 0-.09-.006-.222-.022l-.025-.004c-.378-.047-.472-.045-.533.13-.093.267.457.757.75.816.146.03.321.17.516.429zm.41-.367a.336.336 0 00.087-.008l.007-.016a.164.164 0 01-.094.024zm-1.377-.738c-.007-.009-.01-.02-.004-.036-.001.003.002.01.01.02a.45.45 0 00.032.036.076.076 0 01-.038-.02zm.512.37c-.104-.02-.37-.242-.474-.35a.652.652 0 00.103.016l.054.006.025.003c.147.018.199.024.261.024.037 0 .03.012.025.02-.002.002-.003.004-.002.005.002.004.03-.009.173-.069l.188-.08c.11-.046.211-.077.322-.09.012.052.043.1.093.138.066.051.141.073.27.094-.16.133-.24.243-.266.351-.145.046-.132.209-.045.371.06.114.175.275.345.488l.122.058a.104.104 0 01-.072-.029c-.019-.016-.03-.025-.057.013-.001.002-.115-.075-.358-.417-.238-.318-.47-.504-.707-.551zm.763.188c.002-.002.001-.004.001-.007l-.002.007zm.1-.133h-.01.009zm.002 0h-.003.003z" fill="#979797"/>
        <path d="M13.534 10.069s-.298-.413-.298-.56" stroke="#964C36" stroke-width=".625"/>
        <path d="M13.35 9.714s-.382-.163-.382 0m.375-.171s-.268-.341-.47-.341c-.201 0-.196.17-.196.17m.513-.171s-.12-.558-.311-.558c-.192 0-.192.28-.192.28m.551.277s-.053-.478.194-.478" stroke="#2A8E51" stroke-width=".625"/>
        <path d="M13.913 9.988s-.139-.49-.089-.628" stroke="#964C36" stroke-width=".625"/>
        <path d="M13.86 9.592s-.302-.284-.358-.13m.411-.033s-.135-.413-.325-.482c-.189-.069-.243.093-.243.093m.541.015s.079-.565-.101-.63c-.18-.066-.276.196-.276.196m.423.449s.114-.467.345-.383" stroke="#2A8E51" stroke-width=".625"/>
        <path d="M14.22 10.163s.198-.47.165-.613" stroke="#964C36" stroke-width=".5"/>
        <path d="M14.32 9.775s.335-.244.372-.085m-.404-.083s.185-.393.381-.438c.197-.045.23.122.23.122m-.539-.051s-.008-.57.178-.614c.187-.043.25.229.25.229m-.475.395s-.056-.478-.296-.423m2.669 1.049s.151-.696.582-.696c.43 0 .623.735.623.735" stroke="#2A8E51" stroke-width=".5"/>
        <path d="M16.33 9.401s.233-.411.998-.377c.764.033.904.377.904.377m-2.056-.523s.42-.52 1.01-.079l.199.08s.2-.59 1.166 0" stroke="#2A8E51" stroke-width=".5"/>
        <path d="M17.337 10.023s.03-.65.133-.828m.717 2.251s-.387-.181-.502 0c-.116.182-1.508 1.851-1.508 1.851" stroke="#964C36" stroke-width=".625"/>
        <path fill-rule="evenodd" clip-rule="evenodd" d="M16.853 11.622l.863.603s.397-.283.198-.443c-.198-.16-.74-.442-.74-.442l-.321.282z" fill="#FFF203"/>
        <path fill-rule="evenodd" clip-rule="evenodd" d="M16.823 11.653s-.2.21-.2.37-.186.588-.186.588.52.32.628.116c.108-.204.81-.082.686-.393-.124-.312-.928-.681-.928-.681z" fill="#00A651"/>
        <path fill-rule="evenodd" clip-rule="evenodd" d="M13.16 6.989s.461-.237.69 0c.227.236.414-.02.414-.162 0-.143.362-.633.362-.235 0 .397-.112.621.206.621s1.752-.549 2.096-.386c.343.162.607.122.52-.111-.088-.233-.313-.378-.745-.251-.433.127-.33.25-.704.25-.374 0-.79-.123-.79-.123s.117-.21.543-.06c.427.148 1.016-.184 1.176-.184.16 0 .6-.01.644.117.044.127.31.243.107.362-.203.118-.537.192-.307.344.23.152.759.123.784.28.026.158.277.394.176.394-.1 0-.283.222-.452.155-.17-.068-.19-.127-.027-.182.163-.055.161-.286.027-.286s-.068.081-.373 0c-.305-.08-.709-.17-.685 0 .025.17.223.433-.143.468-.366.035-.538.175-.61.062-.07-.113-.325-.263-.125-.312.2-.048.392.164.464.13.072-.035.236-.054.099-.201-.137-.147-.363-.233-.154-.343.21-.11.044-.112-.355.115-.399.228-.62.421-.97.394-.351-.027-.482.01-.595-.027-.113-.037-.66.407-.819.294-.158-.112-.668-.156-.576-.294.092-.139.215-.21.352-.139.138.071.274.143.367.071.092-.071.36-.316.292-.365-.067-.049-.002-.214-.383-.214-.38 0-.514.184-.604.068-.09-.116.098-.25.098-.25z" fill="#FFD100"/>
      </g>
    </g>
  </g>
</svg>
